X:108
T:Hell On The Wabash
S:American Veteran Fifer #108
C:As Played by Col. Le Roy Van Horn Co. A 18th U.S.I.
M:2/4
L:1/16
Q:1/8=180
K:A 
%%MIDI program 72
%%MIDI transpose 8
%%MIDI ratio 3 1
((3efg)  | a2a2 A3B | cdec A2Bf | =g2g2 =G3A | Bcdc =Gz2^g |
a2a2 A3B | cdec A2(3BAG | Ac ((3efg) aefd | cABG A2:|
|: A2 | ce z e eecA | ce z e eecA | Bd z d ddB=G | Bd z d ddB=G |
ce z e eecA | ce z e eecA | Ac ((3efg) aefd | cABG A2:|


